X:2789
T:I'll gang nae mair to yon town. CJF.004
O:england
M:C|
L:1/8
Q:120
S: C.J.Fox MS, 1829/33, Beverley,E.Yorks.
R:Reel
A:East Yorkshire
B:Kidson Coll.Mitchell Lib.M1805
K:G
g|b/a/g/f/ gd(B2G)d|B(GdG F.A.Ag|b/a/g/f/ .g.d(B2G)d|(c/d/e) (Ac) (BG)G:
|
d|(cG)(dG) (eG)(dG)|(BG)(dG) (e/d/)(c/B/) .A.c|(BG)(dG) (cG)(dG)|(c/d/e)
(Ac) (BG)G:|


